packages/tokens/icons/update/size24Px.svg

<svg viewBox="0 0 24 24" fill="none" xmlns="http://www.w3.org/2000/svg" width="1em" height="1em"><path d="M4.06367 10.3366L4.55248 10.4418L4.06367 10.3366ZM13.1921 4.42986L13.5373 4.79156C13.6338 4.69938 13.6895 4.57242 13.692 4.43894C13.6944 4.30546 13.6433 4.17656 13.5502 4.08094L13.1921 4.42986ZM11.6248 2.10476C11.4321 1.90697 11.1155 1.90285 10.9177 2.09556C10.7199 2.28826 10.7158 2.60482 10.9085 2.80261L11.6248 2.10476ZM10.8846 5.94101C10.6848 6.13167 10.6774 6.44817 10.8681 6.64793C11.0588 6.84769 11.3753 6.85507 11.575 6.66441L10.8846 5.94101ZM6.2853 6.36054L6.63052 6.72224L6.2853 6.36054ZM5.75783 17.8818C5.94849 18.0816 6.26498 18.089 6.46474 17.8983C6.6645 17.7077 6.67187 17.3912 6.48121 17.1914L5.75783 17.8818ZM13.5502 4.08094L11.6248 2.10476L10.9085 2.80261L12.8339 4.77878L13.5502 4.08094ZM12.8468 4.06816L10.8846 5.94101L11.575 6.66441L13.5373 4.79156L12.8468 4.06816ZM4.55248 10.4418C4.86037 9.01132 5.58651 7.71865 6.63052 6.72224L5.94009 5.99884C4.75084 7.13387 3.92484 8.60538 3.57487 10.2314L4.55248 10.4418ZM6.63052 6.72224C8.263 5.16418 10.8524 4.42424 13.084 4.91805L13.3001 3.94167C10.74 3.37516 7.81138 4.21286 5.94009 5.99884L6.63052 6.72224ZM6.48121 17.1914C4.7759 15.4047 4.03905 12.8272 4.55248 10.4418L3.57487 10.2314C2.99068 12.9456 3.82728 15.8592 5.75783 17.8818L6.48121 17.1914Z" fill="currentColor"/><path d="M19.9215 13.6629L19.4327 13.5577L19.9215 13.6629ZM10.7931 19.5697L10.4479 19.208C10.3513 19.3001 10.2956 19.4271 10.2932 19.5606C10.2908 19.6941 10.3418 19.823 10.435 19.9186L10.7931 19.5697ZM12.3604 21.8948C12.5531 22.0925 12.8697 22.0967 13.0675 21.904C13.2652 21.7112 13.2694 21.3947 13.0767 21.1969L12.3604 21.8948ZM13.1006 18.0585C13.3003 17.8678 13.3077 17.5513 13.1171 17.3516C12.9264 17.1518 12.6099 17.1444 12.4101 17.3351L13.1006 18.0585ZM17.6999 17.639L17.3547 17.2773L17.6999 17.639ZM18.2273 6.11767C18.0367 5.91791 17.7202 5.91054 17.5204 6.1012C17.3207 6.29186 17.3133 6.60835 17.504 6.80811L18.2273 6.11767ZM10.435 19.9186L12.3604 21.8948L13.0767 21.1969L11.1512 19.2207L10.435 19.9186ZM11.1383 19.9313L13.1006 18.0585L12.4101 17.3351L10.4479 19.208L11.1383 19.9313ZM19.4327 13.5577C19.1248 14.9882 18.3987 16.2809 17.3547 17.2773L18.0451 18.0007C19.2343 16.8656 20.0603 15.3941 20.4103 13.7681L19.4327 13.5577ZM17.3547 17.2773C15.7222 18.8353 13.1327 19.5753 10.9011 19.0815L10.6851 20.0578C13.2452 20.6244 16.1738 19.7867 18.0451 18.0007L17.3547 17.2773ZM17.504 6.80811C19.2093 8.59479 19.9461 11.1723 19.4327 13.5577L20.4103 13.7681C20.9945 11.0539 20.1579 8.14033 18.2273 6.11767L17.504 6.80811Z" fill="currentColor"/><path d="M11.4998 8.5L11.5001 13.5H13.4998" stroke="currentColor" stroke-miterlimit="10" stroke-linecap="round" stroke-linejoin="round"/></svg>

<svg xmlns="http://www.w3.org/2000/svg" fill="none" viewBox="0 0 24 24" width="1em" height="1em"><path fill="currentColor" d="m4.064 10.337.488.105-.488-.105Zm9.128-5.907.345.362a.5.5 0 0 0 .013-.711l-.358.349Zm-1.567-2.325a.5.5 0 0 0-.716.698l.716-.698Zm-.74 3.836a.5.5 0 1 0 .69.723l-.69-.723Zm-4.6.42.346.361-.346-.361Zm-.527 11.52a.5.5 0 1 0 .723-.69l-.723.69Zm7.792-13.8-1.925-1.976-.716.698 1.925 1.976.716-.698Zm-.703-.013-1.962 1.873.69.723 1.962-1.872-.69-.724Zm-8.295 6.374a7.243 7.243 0 0 1 2.079-3.72L5.94 6a8.243 8.243 0 0 0-2.366 4.232l.977.21Zm2.079-3.72c1.632-1.558 4.221-2.298 6.453-1.804l.216-.976c-2.56-.567-5.489.27-7.36 2.057l.69.723Zm-.15 10.47c-1.705-1.787-2.442-4.365-1.929-6.75l-.977-.21c-.584 2.714.252 5.627 2.183 7.65l.723-.69Zm13.441-3.529-.49-.105.49.105Zm-9.129 5.907-.345-.362a.5.5 0 0 0-.013.71l.358-.348Zm1.567 2.325a.5.5 0 0 0 .717-.698l-.717.698Zm.74-3.837a.5.5 0 0 0-.69-.723l.69.723Zm4.6-.419-.345-.362.345.362Zm.527-11.521a.5.5 0 1 0-.723.69l.723-.69Zm-7.792 13.8 1.925 1.977.717-.698-1.926-1.976-.716.698Zm.703.013 1.963-1.873-.69-.723-1.963 1.873.69.723Zm8.295-6.373a7.243 7.243 0 0 1-2.078 3.72l.69.723a8.244 8.244 0 0 0 2.365-4.233l-.977-.21Zm-2.078 3.72c-1.633 1.557-4.222 2.297-6.454 1.803l-.216.977c2.56.566 5.489-.271 7.36-2.057l-.69-.724Zm.149-10.47c1.705 1.787 2.442 4.364 1.929 6.75l.977.21c.584-2.714-.252-5.628-2.183-7.65l-.723.69Z"/><path stroke="currentColor" stroke-linecap="round" stroke-linejoin="round" stroke-miterlimit="10" d="M11.5 8.5v5h2"/></svg>
